X:1
T:Glory Over Yonder
T:Glory Over Yonder
T:Julian Henry (Sharp) McNiel
T:Julian Henry (Sharp) McNiel, 1902
T:Public Domain Courtesy of the Cyber Hymnal™
T:Public Domain Courtesy of the Cyber Hymnal™
C:Julian Henry (Sharp) McNiel
Z:Public Domain
Z:Courtesy of the Cyber Hymnal™
%%score ( 1 2 ) ( 3 4 )
L:1/8
Q:1/4=92
M:4/4
K:Eb
V:1 treble 
V:2 treble 
V:3 bass 
V:4 bass 
V:1
 E>[EG] | [EB]>[EB] [EG]>[Ec] [EB]2 [EG]>[DF] | E>E E>[DF] [EG]2 (3(Bc)[Ad] x | %3
w: 1.~What bright|vi- sions come to me When I|think of joys to be, ’Twill * be|
w: 2.~Af- ter|pil- grim’s paths are trod, Shar- ing|in the peace of God, ’Twill * be|
w: 3.~O the|bliss that we shall know With our|souls made white as snow, ’Twill * be|
 [Ge]>[Ge] [GB]>[Ac] [GB]>[GB] [EG]>[EG] | [DF]6 E>[EG] | [EB]>[EB] [EG]>[Ec] [EB]2 [EG]>[DF] | %6
w: glo- ry when we meet each o- ther|there; Je- sus|has pre- pared a home For us|
w: glo- ry when we meet each o- ther|there; While the|end- less ag- es roll, Christ’s a-|
w: glo- ry when we meet each o- ther|there; We shall|praise the ho- ly Lamb, Chant- ing|
 E>E E>[DF] [EG]2 (3(Bc)[Ad] | [Ge]>[Ge] [GB]>[Ac] [GB]>[GB] [EG]>[DF] | E6 || %9
w: where no harm can come, ’Twill * be|glo- ry when we meet each o- ther|there.|
w: ton- ing love ex- tol, ’Twill * be|glo- ry when we meet each o- ther|there.|
w: loud re- demp- tion’s psalm, ’Twill * be|glo- ry when we meet each o- ther|there.|
"^Refrain" B(3:2:2[=Ac][_Ad] x/24 | [Ge]4- [Ge]>[Ge] [Ad]>[Ac] | [GB]4 [EG]2 [GB]>[Ge] | %12
w: |||
w: ’Twill be glo-|* * ry o- ver|yon- der, When we|
w: |||
 [Fd]4- [Fd]>[=E^c] [Fd]>[_E=c] | [DB]6 B(3:2:2[=Ac][_Ad] x/24 | [Ge]4- [Ge]>[Ge] [Ad]>[Ac] | %15
w: |||
w: meet * each o- ther|there; ’Twill be glo-|* * ry o- ver|
w: |||
 [GB]4 !fermata![Ge]2 E>[EF] | [EG]3 [EB] [EG]2 [DF]2 | E6 |] %18
w: |||
w: yon- der, In that|home so bright and|fair.|
w: |||
V:2
 E3/2 x/ | x8 | E>E E3/2 x A2 x5/2 | x8 | x6 E3/2 x/ | x8 | E>E E3/2 x A2 x3/2 | x8 | E6 || %9
 (3:2:1B x41/24 | x8 | x8 | x8 | x6 (3:2:1B x41/24 | x8 | x6 E3/2 x/ | x8 | E6 |] %18
V:3
 [E,G,]>[E,B,] | [E,G,]>[E,G,] [E,B,]>[E,A,] [E,G,]2 [E,B,]>[B,,A,] | %2
w: ~ ~|~ ~ ~ ~ ~ ~ ~|
 [C,G,]>[C,G,] [C,G,]>[B,,B,] [E,B,]2 B,2 B, | %3
w: ~ ~ ~ ~ ~ ~ ~|
 [E,B,]>[E,B,] [E,E]>[E,E] [E,E]>[E,E] [E,B,]>[E,B,] | [B,,B,]6 [E,G,]>[E,B,] | %5
w: ~ ~ ~ ~ ~ ~ ~ ~|~ ~ ~|
 [E,G,]>[E,G,] [E,B,]>[E,A,] [E,G,]2 [E,B,]>[B,,A,] | %6
w: ~ ~ ~ ~ ~ ~ ~|
 [C,G,]>[C,G,] [C,G,]>[B,,B,] [E,B,]2 (3:2:2[B,,B,]2 [B,,B,] | %7
w: ~ ~ ~ ~ ~ ~ ~|
 [E,B,]>[E,B,] [E,E]>[A,,A,E] [B,,B,E]>[B,,B,E] [B,,B,]>[B,,A,] | [E,G,]6 || z2 x3/8 | %10
w: ~ ~ ~ ~ ~ ~ ~ ~|~||
 z2 [E,B,]>[E,B,] [E,B,]>[E,B,] [E,C]>[E,D] | [E,E]4 [E,B,]2 [E,B,]>[E,B,] | %12
w: ’Twill be glo- ry ~ ~|~ ~ ~ ~|
 [F,B,]2 [F,B,]>[F,B,] [F,B,]>[F,B,] [F,B,]>[F,=A,] | %13
w: meet, when we meet each o- there|
 [B,,B,]>[B,,B,] [B,,B,]>[B,,B,] [B,,B,]2 z2 x3/8 | z2 [E,B,]>[E,B,] [E,B,]>[E,B,] [E,C]>[E,D] | %15
w: there, each o- ther there;|’Twill be glo- ry * *|
 (E2 B,2) !fermata![C,C]2 [C,G,]>[_C,=A,] | [B,,B,]3 [B,,G,] [B,,B,]2 [B,,A,]2 | [E,G,]6 |] %18
w: |||
V:4
 x2 | x8 | x6 (3:2:2B,2 B, x | x8 | x8 | x8 | x8 | x8 | x6 || x19/8 | x8 | x8 | x8 | x67/8 | x8 | %15
 E,4 x4 | x8 | x6 |] %18

